svg/l/JO.svg

<svg width="32" height="24" viewBox="0 0 32 24" fill="none" xmlns="http://www.w3.org/2000/svg">
<g clip-path="url(#clip0_270_67508)">
<rect width="32" height="24" fill="white"/>
<path fill-rule="evenodd" clip-rule="evenodd" d="M0 0V24H32V0H0Z" fill="#F7FCFF"/>
<mask id="mask0_270_67508" style="mask-type:luminance" maskUnits="userSpaceOnUse" x="0" y="0" width="32" height="24">
<path fill-rule="evenodd" clip-rule="evenodd" d="M0 0V24H32V0H0Z" fill="white"/>
</mask>
<g mask="url(#mask0_270_67508)">
<path fill-rule="evenodd" clip-rule="evenodd" d="M0 0V8H32V0H0Z" fill="#272727"/>
<path fill-rule="evenodd" clip-rule="evenodd" d="M0 16V24H32V16H0Z" fill="#009933"/>
</g>
<path fill-rule="evenodd" clip-rule="evenodd" d="M0 0V24L20 12L0 0Z" fill="#E31D1C"/>
<mask id="mask1_270_67508" style="mask-type:luminance" maskUnits="userSpaceOnUse" x="0" y="0" width="20" height="24">
<path fill-rule="evenodd" clip-rule="evenodd" d="M0 0V24L20 12L0 0Z" fill="white"/>
</mask>
<g mask="url(#mask1_270_67508)">
<path fill-rule="evenodd" clip-rule="evenodd" d="M9.00179 13.8707L7.13112 15L7.55781 12.7962L6 11.1469L8.10936 11.0578L9.00179 9L9.89423 11.0578H12L10.4458 12.7962L10.9137 15L9.00179 13.8707Z" fill="#F7FCFF"/>
</g>
</g>
<defs>
<clipPath id="clip0_270_67508">
<rect width="32" height="24" fill="white"/>
</clipPath>
</defs>
</svg>

<svg width="32" height="24" fill="none" xmlns="http://www.w3.org/2000/svg">
  <mask id="a" maskUnits="userSpaceOnUse" x="0" y="0" width="32" height="24">
    <path fill="#fff" d="M0 0h32v24H0z"/>
  </mask>
  <g mask="url(#a)">
    <path fill-rule="evenodd" clip-rule="evenodd" d="M0 0v24h32V0H0z" fill="#F7FCFF"/>
    <mask id="b" maskUnits="userSpaceOnUse" x="0" y="0" width="32" height="24">
      <path fill-rule="evenodd" clip-rule="evenodd" d="M0 0v24h32V0H0z" fill="#fff"/>
    </mask>
    <g mask="url(#b)" fill-rule="evenodd" clip-rule="evenodd">
      <path d="M0 0v8h32V0H0z" fill="#272727"/>
      <path d="M0 16v8h32v-8H0z" fill="#093"/>
    </g>
    <path fill-rule="evenodd" clip-rule="evenodd" d="M0 0v24l20-12L0 0z" fill="#E31D1C"/>
    <mask id="c" maskUnits="userSpaceOnUse" x="0" y="0" width="20" height="24">
      <path fill-rule="evenodd" clip-rule="evenodd" d="M0 0v24l20-12L0 0z" fill="#fff"/>
    </mask>
    <g mask="url(#c)">
      <path fill-rule="evenodd" clip-rule="evenodd" d="M9.002 13.87L7.132 15l.426-2.204L6 11.146l2.11-.088L9.001 9l.892 2.058H12l-1.554 1.738.468 2.204-1.912-1.13z" fill="#F7FCFF"/>
    </g>
  </g>
</svg>
